X: 32124
T: Peter Byrne's
R: jig
M: 6/8
K: Dmixolydian
|:D3 AFD|c2A BAG|A3 AFD|c2A BGE|
EAD AFD|c2A BAG|A3 cde|dcA GEA:|
|:D2d cde|dcA AGE|c2A cde|dcA GEA|
D2d cde|dcA AGE|c2e fed|c2A BGE:|

